X: 0
T: The Canty Auld Man
T: As played by Winston Scotty Fitzgerald
C: Trad
O: Scotland
R: jig
M: 6/8
L: 1/8
K: Gmaj
|:D|"G"GAG GBd|"C"e3 e2g|"G"dBG dBG|"D"A3 A2D|
"G"GAG GBd|"C"e3 e2g|"G"dBG "D"cAF|"G"G3 G2:|
|:B|"C"c2d cAF|"G"d2B dBG|"C"e2c dBG|"D"A3 A2B|
"C"cdc cAF|"G"d2B dBG|"C"efg BcA|1"G"G3 G2|2G3 G:|
|:Bc|"G"dBG "D"D2B|"C"cAF "D"D2c|"G"BGB cAc|BGB "D"ABc|
"G"dBG "D"D2B|"C"cAF "D"D2c|"G"BGB "D"cAc|BcA "G"G:|